src/components/icon/wikipedia.svg

<?xml version="1.0" encoding="iso-8859-1"?>
<!-- Generator: Adobe Illustrator 16.0.0, SVG Export Plug-In . SVG Version: 6.00 Build 0)  -->
<!DOCTYPE svg PUBLIC "-//W3C//DTD SVG 1.1//EN" "http://www.w3.org/Graphics/SVG/1.1/DTD/svg11.dtd">
<svg version="1.1" id="Capa_1" xmlns="http://www.w3.org/2000/svg" xmlns:xlink="http://www.w3.org/1999/xlink" x="0px" y="0px"
	 width="97.75px" height="97.75px" viewBox="0 0 97.75 97.75" style="enable-background:new 0 0 97.75 97.75;" xml:space="preserve"
	>
<g>
	<path d="M48.875,0C21.883,0,0,21.883,0,48.875S21.883,97.75,48.875,97.75S97.75,75.867,97.75,48.875S75.867,0,48.875,0z
		 M77.691,37.503c-2.779,6.28-11.279,26.171-16.951,39.136c-0.008,0.006-1.486-0.003-1.49-0.005l-8.945-21.069
		c-3.545,6.953-7.473,14.181-10.832,21.059c-0.02,0.035-1.625,0.016-1.627-0.006c-5.135-11.986-10.459-23.893-15.621-35.87
		c-1.195-2.928-5.387-7.637-8.256-7.61c0-0.34-0.016-1.099-0.02-1.558l17.682-0.002l-0.014,1.531
		c-2.076,0.096-5.664,1.421-4.734,3.713c2.492,5.381,11.316,26.227,13.701,31.519c1.664-3.257,6.311-11.939,8.225-15.609
		c-1.5-3.078-6.457-14.57-7.943-17.464c-1.121-1.887-3.934-2.118-6.1-2.151c0-0.483,0.025-0.855,0.016-1.518l15.543,0.048v1.412
		c-2.104,0.058-4.096,0.841-3.193,2.853c2.091,4.34,3.312,7.43,5.231,11.444c0.613-1.176,3.755-7.622,5.253-11.024
		c0.905-2.262-0.447-3.109-4.232-3.211c0.05-0.372,0.017-1.119,0.05-1.475l13.424,0.013l0.006,1.401
		c-2.467,0.096-5.021,1.41-6.354,3.45l-6.464,13.406c0.709,1.773,6.924,15.58,7.578,17.111L74.988,36.18
		c-0.951-2.497-3.984-3.055-5.17-3.082c0.008-0.398,0.01-1.005,0.012-1.512l13.951,0.04l0.02,0.07l-0.023,1.394
		C80.717,33.183,78.824,34.82,77.691,37.503z"/>
</g>
<g>
</g>
<g>
</g>
<g>
</g>
<g>
</g>
<g>
</g>
<g>
</g>
<g>
</g>
<g>
</g>
<g>
</g>
<g>
</g>
<g>
</g>
<g>
</g>
<g>
</g>
<g>
</g>
<g>
</g>
</svg>

<?xml version="1.0" encoding="UTF-8" standalone="no"?>
<!DOCTYPE svg PUBLIC "-//W3C//DTD SVG 1.1//EN" "http://www.w3.org/Graphics/SVG/1.1/DTD/svg11.dtd">
<svg width="100%" height="100%" viewBox="0 0 98 98" version="1.1" xmlns="http://www.w3.org/2000/svg" xmlns:xlink="http://www.w3.org/1999/xlink" xml:space="preserve" xmlns:serif="http://www.serif.com/" style="fill-rule:evenodd;clip-rule:evenodd;stroke-linejoin:round;stroke-miterlimit:2;">
    <path d="M48.875,0C21.883,0 0,21.883 0,48.875C0,75.867 21.883,97.75 48.875,97.75C75.867,97.75 97.75,75.867 97.75,48.875C97.75,21.883 75.867,0 48.875,0ZM77.691,37.503C74.912,43.783 66.412,63.674 60.74,76.639C60.732,76.645 59.254,76.636 59.25,76.634L50.305,55.565C46.76,62.518 42.832,69.746 39.473,76.624C39.453,76.659 37.848,76.64 37.846,76.618C32.711,64.632 27.387,52.725 22.225,40.748C21.03,37.82 16.838,33.111 13.969,33.138C13.969,32.798 13.953,32.039 13.949,31.58L31.631,31.578L31.617,33.109C29.541,33.205 25.953,34.53 26.883,36.822C29.375,42.203 38.199,63.049 40.584,68.341C42.248,65.084 46.895,56.402 48.809,52.732C47.309,49.654 42.352,38.162 40.866,35.268C39.745,33.381 36.932,33.15 34.766,33.117C34.766,32.634 34.791,32.262 34.782,31.599L50.325,31.647L50.325,33.059C48.221,33.117 46.229,33.9 47.132,35.912C49.223,40.252 50.444,43.342 52.363,47.356C52.976,46.18 56.118,39.734 57.616,36.332C58.521,34.07 57.169,33.223 53.384,33.121C53.434,32.749 53.401,32.002 53.434,31.646L66.858,31.659L66.864,33.06C64.397,33.156 61.843,34.47 60.51,36.51L54.046,49.916C54.755,51.689 60.97,65.496 61.624,67.027L74.988,36.18C74.037,33.683 71.004,33.125 69.818,33.098C69.826,32.7 69.828,32.093 69.83,31.586L83.781,31.626L83.801,31.696L83.778,33.09C80.717,33.183 78.824,34.82 77.691,37.503Z" style="fill:rgb(27,13,78);fill-rule:nonzero;"/>
</svg>
